tools/download-figma-icons/icons/solid/emob-wall.svg

<svg xmlns="http://www.w3.org/2000/svg" width="24" height="24" fill="none" viewBox="0 0 24 24"><path fill="currentColor" fill-rule="evenodd" d="M4.875 2.25h6.75c.621 0 1.125.504 1.125 1.125v3c0 .621-.504 1.125-1.125 1.125h-6.75A1.125 1.125 0 0 1 3.75 6.375v-3c0-.621.504-1.125 1.125-1.125M1.125 9h4.5c.621 0 1.125.504 1.125 1.125v3c0 .621-.504 1.125-1.125 1.125h-4.5A1.125 1.125 0 0 1 0 13.125v-3C0 9.504.504 9 1.125 9m18-6.75h-3.75c-.621 0-1.125.504-1.125 1.125v3c0 .621.504 1.125 1.125 1.125h3.75c.621 0 1.125-.504 1.125-1.125v-3c0-.621-.504-1.125-1.125-1.125m-4.5 12h-5.25a1.125 1.125 0 0 1-1.125-1.125v-3C8.25 9.504 8.754 9 9.375 9h5.25c.621 0 1.125.504 1.125 1.125v3c0 .621-.504 1.125-1.125 1.125m3.75 0h4.5c.621 0 1.125-.504 1.125-1.125v-3C24 9.504 23.496 9 22.875 9h-4.5c-.621 0-1.125.504-1.125 1.125v3c0 .621.504 1.125 1.125 1.125m-6 6.75a1.125 1.125 0 0 1-1.125-1.125v-3c0-.621.504-1.125 1.125-1.125h6.75c.621 0 1.125.504 1.125 1.125v3c0 .621-.504 1.125-1.125 1.125zM3.75 19.875c0 .621.504 1.125 1.125 1.125h3.75c.621 0 1.125-.504 1.125-1.125v-3c0-.621-.504-1.125-1.125-1.125h-3.75c-.621 0-1.125.504-1.125 1.125z" clip-rule="evenodd"/></svg>

<svg width="24" height="24" viewBox="0 0 24 24" fill="none" xmlns="http://www.w3.org/2000/svg">
<path fill-rule="evenodd" clip-rule="evenodd" d="M4.875 2.25H11.625C12.246 2.25 12.75 2.754 12.75 3.375V6.375C12.75 6.996 12.246 7.5 11.625 7.5H4.875C4.254 7.5 3.75 6.996 3.75 6.375V3.375C3.75 2.754 4.254 2.25 4.875 2.25ZM1.125 9H5.625C6.246 9 6.75 9.504 6.75 10.125V13.125C6.75 13.746 6.246 14.25 5.625 14.25H1.125C0.504 14.25 0 13.746 0 13.125V10.125C0 9.504 0.504 9 1.125 9ZM19.125 2.25H15.375C14.754 2.25 14.25 2.754 14.25 3.375V6.375C14.25 6.996 14.754 7.5 15.375 7.5H19.125C19.746 7.5 20.25 6.996 20.25 6.375V3.375C20.25 2.754 19.746 2.25 19.125 2.25ZM14.625 14.25H9.375C8.754 14.25 8.25 13.746 8.25 13.125V10.125C8.25 9.504 8.754 9 9.375 9H14.625C15.246 9 15.75 9.504 15.75 10.125V13.125C15.75 13.746 15.246 14.25 14.625 14.25ZM18.375 14.25H22.875C23.496 14.25 24 13.746 24 13.125V10.125C24 9.504 23.496 9 22.875 9H18.375C17.754 9 17.25 9.504 17.25 10.125V13.125C17.25 13.746 17.754 14.25 18.375 14.25ZM12.375 21C11.754 21 11.25 20.496 11.25 19.875V16.875C11.25 16.254 11.754 15.75 12.375 15.75H19.125C19.746 15.75 20.25 16.254 20.25 16.875V19.875C20.25 20.496 19.746 21 19.125 21H12.375ZM3.75 19.875C3.75 20.496 4.254 21 4.875 21H8.625C9.246 21 9.75 20.496 9.75 19.875V16.875C9.75 16.254 9.246 15.75 8.625 15.75H4.875C4.254 15.75 3.75 16.254 3.75 16.875V19.875Z" fill="black"/>
</svg>
